app/assets/img/ic-health-&-medical.svg

<svg fill="none" height="42" viewBox="0 0 46 42" width="46" xmlns="http://www.w3.org/2000/svg"><g fill="#ff7269"><path d="m22.9896 37.0626c-2.1625-1.8063-5.1208-4.5479-7.9479-7.7292h-5.46041c5.33961 6.7083 11.68121 11.7063 12.14171 12.0625.3729.2917.825.4375 1.277.4375.4521 0 .9042-.1458 1.2771-.4375.4104-.3187 5.5167-4.3417 10.4084-9.9792h-5.6521c-2.4313 2.5042-4.6979 4.5105-6.0438 5.6459z"/><path d="m6.55004 14.7501c-.12708-.7042-.21666-1.4021-.21666-2.0834 0-5.06245 3.27083-8.33329 8.33332-8.33329 2.6854 0 4.9 1.95417 5.8063 4.16667h5.0541c.9063-2.2125 3.1209-4.16667 5.8063-4.16667 5.0625 0 8.3333 3.27084 8.3333 8.33329 0 1.3605-.2771 2.7584-.7292 4.1667h4.2959c.3604-1.3917.6-2.7854.6-4.1667 0-7.36037-5.1396-12.499952-12.5-12.499952-3.3209 0-6.3959 1.743752-8.3334 4.333332-1.9375-2.58958-5.0125-4.333332-8.3333-4.333332-7.36041 0-12.49999 5.139582-12.49999 12.499952 0 .6917.07916 1.3875.175 2.0834z"/><path d="m39.0355 21.0001-5.1855 3.4562-8.5937-10.7416-8.5063 8.5062-6.25-6.25-5.02913 5.0292h-5.387496v4.1666h7.112496l3.30413-3.3021 6.25 6.25 8.1605-8.1604 8.0729 10.0896 7.3146-4.8771h5.6187v-4.1666z"/></g></svg>

<svg width="46" height="42" viewBox="0 0 46 42" fill="none" xmlns="http://www.w3.org/2000/svg">
<path d="M22.9896 37.0626C20.8271 35.2563 17.8688 32.5147 15.0417 29.3334H9.58129C14.9209 36.0417 21.2625 41.0397 21.723 41.3959C22.0959 41.6876 22.548 41.8334 23 41.8334C23.4521 41.8334 23.9042 41.6876 24.2771 41.3959C24.6875 41.0772 29.7938 37.0542 34.6855 31.4167H29.0334C26.6021 33.9209 24.3355 35.9272 22.9896 37.0626Z" fill="#FF7269"/>
<path d="M6.55004 14.7501C6.42296 14.0459 6.33338 13.348 6.33338 12.6667C6.33338 7.60425 9.60421 4.33341 14.6667 4.33341C17.3521 4.33341 19.5667 6.28758 20.473 8.50008H25.5271C26.4334 6.28758 28.648 4.33341 31.3334 4.33341C36.3959 4.33341 39.6667 7.60425 39.6667 12.6667C39.6667 14.0272 39.3896 15.4251 38.9375 16.8334H43.2334C43.5938 15.4417 43.8334 14.048 43.8334 12.6667C43.8334 5.30633 38.6938 0.166748 31.3334 0.166748C28.0125 0.166748 24.9375 1.9105 23 4.50008C21.0625 1.9105 17.9875 0.166748 14.6667 0.166748C7.30629 0.166748 2.16671 5.30633 2.16671 12.6667C2.16671 13.3584 2.24587 14.0542 2.34171 14.7501H6.55004Z" fill="#FF7269"/>
<path d="M39.0355 21.0001L33.85 24.4563L25.2563 13.7147L16.75 22.2209L10.5 15.9709L5.47087 21.0001H0.083374V25.1667H7.19587L10.5 21.8646L16.75 28.1146L24.9105 19.9542L32.9834 30.0438L40.298 25.1667H45.9167V21.0001H39.0355Z" fill="#FF7269"/>
</svg>
